X: 361
T: Bir Dügâh-mâye
C: Ahmet Avni Konuk
O: Turkey
F: http://compmusic.upf.edu/node/140
N: dugah-maye--kupe--duyek--bir--ahmet_avni_konuk
N: makam= dugah-maye
N: form= kupe
N: usul= duyek = 8/4
M: 8/4
L: 1/16
K: C _1/4B   
Q: 1/4=57
%%MIDI tuningsystem comma53
z4 d8 c2_2/4B2 B2A2 B2A2 A6z2  | z4 A8 c4 _2/4BABc B2A2 G2^3/4F2 G4  | 
w:  Bir  Dü *  gâh *  *  *  mâ  |  ye  se mâ *  *  *  *  *  î  | 
z4 A2_2/4B2 A4 B4 c2d2 c2B2 d3c B2d2  | \
w:  yi  *  *  ha zî *  *  *  ni   | 
c2_2/4B2 f4 e4 d4 d2c4_1/4B^3/4A B6z2  | 
w:  *  *  din *  le dim    | 
z4 d8 e2f2 e2d2 c2_2/4B2 c3B A4  | \
w:  Rû hu *  mun  *  *  *  vec  | 
z4 A2G2 A4 _2/4B2c2 d2c2 B2A2 G6z2  | 
w:  diy *  *  le  *  ol  *  *  *  an  | 
z4 A2_2/4B2 A4 B4 c2d2 c2B2 d3c B2f2  | \
w:  da  *  *  gö nül *  *  *  den   | 
e2d2 d2c2 c2_2/4B2 B2A2 A2c2 B2A2 A6z2  | 
w:  *  *  in *  *  *  le *  dim    | 
|


